X:1
T:Title
%%score [ 1 2 3 4 ]
L:1/8
Q:1/4=96
M:3/2
K:C
V:1 treble nm="s" snm="s"
V:2 treble nm="a" snm="a"
V:3 treble-8 nm="t" snm="t"
V:4 bass nm="b" snm="b"
V:1
!p! D2 | A2 d2 cB(AB) (c2 d2) | e2 A4 G2 A4 |!mf! A4 B2 B2 (cB) A2 | (B2 G2 A4 G2) E2 | %5
w: Det|gam- * * * la * år *|fram- gång- et är,|Nytt kom- mer nu * i|stäl- * * * let|
!p! D4 z2 A2 (G2 c2 | AG)(FG) A2 B2 (c2 d2- |!mp! dc) B2 c4 z2 e2 | d2 B2 (cB)(AB) (c2 d2 | %9
w: här. Gud va- *|* * re * lov, att vi *|* * i frid fått|le- va in- * till * den- *|
 e2 c2 cB) A2 G4 |!f! z2 g2 d2 e2 c2 A2 | (dc) B2 c4 z2 B2 | (G2 c2 A2) f2 e2 c2 | %13
w: * * * * na tid!|För- län, o Gud, ett|gott * nytt år, att|var * * och en nytt|
!p! (dc) B2 A4- !breath!A2 D2 | A2 d2 (cBAB c2) d2 | (e2 A4) G2 A4 |!f! z2 A2 B2 G2 A2 F2 | %17
w: si- * ne får, * och|i sin gam- * * * * la|synd * ej står!|För- län, o Gud, ett|
 G4 E4 D4- |!p! D2 z2 (D4 E2 C2 | D8) z2 |] %20
w: gott nytt år.|* A- * *|men.|
V:2
!p! A,2 | E2 D2 (E2 A2) (E2 D2) | (C2 D2) E4 E4 |!mf! ^F4 G2 G2 E2 E2 | (F2 E2 E4 ED) ^C2 | %5
w: Det|gam- la år * fram- *|gång- * et är,|Nytt kom- mer nu i|stäl- * * * * let|
!p! D4 z2 A,2 E4- | E2 F2 E2 F2 (G2 F2- |!mp! F2) D2 E4 z2 E2 | A2 F2 G2 A2 (E2 G2 | %9
w: här. Gud va-|* re lov, att vi *|* i frid fått|le- va in- till den- *|
 G2 F2 G2) F2 D4 |!f! z2 G2 A2 E2 E2 F2 | D2 D2 E4 z2 F2 | (G2 E2 F2) A2 G2 A2 | %13
w: * * * na tid!|För- län, o Gud, ett|gott nytt år, att|var * * och en nytt|
!p! (F4 EF) D2 !breath!C2 D2 | E2 D2 (E2 A2 E2) D2 | (C2 D2) E4 E4 |!f! z2 ^F2 G2 E2 E2 D2 | %17
w: sin- * * ne får, och|i sin gam- * * la|synd * ej står!|För- län, o Gud, ett|
 D6 ^C2 D4- |!p! D2 z2 (B,4 G,2 A,2 | A,8) z2 |] %20
w: gott nytt år.|* A- * *|men.|
V:3
!p! F2 | E2 A2 (A2 e2) A4 | A4 B4 ^c4 |!mf! d4 d2 e2 c2 c2 | (d2 B2 A2 Bc B2) A2 | %5
w: Det|gam- la år * fram-|gång- et är,|nytt kom- mer nu i|stäl- * * * * * let|
!p! ^F4 z2 E2 (B2 A2 | c2) c2 cB A2 (G2 A2) |!mp! G4 G4 z2 B2 | A2 d2 c2 c2 (A2 B2 | %9
w: här. Gud va- *|* re lov, * att vi *|i frid fått|le- va in- till den- *|
 c2 A2 G2) c2 B4 |!f! z2 c2 A2 B2 c2 c2 | A2 G2 G4 z2 d2 | (B4 A2) c2 B2 A2 | %13
w: * * * na tid!|För- län, o Gud, ett|gott nytt år, att|var * och en nytt|
!p! A4 A4 !breath!A2 F2 | E2 A2 (A2 e2 A2) A2 | A4 B4 ^c4 |!f! z2 d2 d2 B2 c2 A2 | B4 A4 ^F4- | %18
w: sin- ne får, och|i sin gam- * * la|synd ej står!|För- län, o Gud, ett|gott nytt år.|
!p! F2 z2 (G4 E4 | ^F8) z2 |] %20
w: * A- *|men.|
V:4
!p! D,2 | C,2 F,2 (E,D,C,D,) (E,2 F,2) | (G,2 F,2) E,4 A,,4 |!mf! D,4 G,2 E,2 A,2 F,2 | %4
w: Det|gam- la år * * * fram- *|gång- * et är,|nytt kom- mer nu i|
 (D,2 E,2 F,4 G,2) A,2 |!p! D,4 z2 C,2 (E,2 A,2 | F,2) D,2 C,2 D,2 (E,2 F,2 | %7
w: stäl- * * * let|här. Gud va- *|* re lov, att vi *|
!mp! G,2) G,,2 C,4 z2 G,2 | F,2 D,2 E,2 F,2 (A,2 G,2 | C,2 D,2 E,2) F,2 G,4 | %10
w: * i frid fått|le- va in- till den- *|* * * na tid!|
!f! z2 E,2 F,2 G,2 A,2 D,2 | F,2 G,2 C,4 z2 D,2 | (E,2 C,2 F,2) D,2 E,2 F,2 | %13
w: För- län, o Gud, ett|gott nytt år, att|var * * och en nytt|
!p! (E,2 D,2 C,D,) B,,2 !breath!A,,2 D,2 | C,2 F,2 (E,2 C,2 E,2) F,2 | (G,2 F,2) E,4 A,,4 | %16
w: sin- * * * ne får, och|i sin gam- * * la|synd * ej står!|
!f! z2 D,2 G,,2 E,2 A,,2 D,2 | G,,4 A,,4 D,4- |!p! D,2 z2 (G,,4 C,2 A,,2 | D,8) z2 |] %20
w: För- län, o Gud, ett|gott nytt år.|* A- * *|men.|

